symbols/web/settings_phone/materialsymbolssharp/settings_phone_wght600gradN25fill1_20px.svg

<svg xmlns="http://www.w3.org/2000/svg" height="20" width="20"><path d="M10.312 8.979q-.416 0-.708-.281T9.312 8q0-.396.292-.687.292-.292.708-.292.396 0 .678.292.281.291.281.687 0 .417-.281.698-.282.281-.678.281Zm3.313 0q-.417 0-.698-.281-.281-.281-.281-.698 0-.396.281-.687.281-.292.677-.292.417 0 .708.292.292.291.292.687 0 .417-.292.698-.291.281-.687.281Zm3.313 0q-.396 0-.698-.281-.302-.281-.302-.698 0-.396.302-.687.302-.292.698-.292.395 0 .677.292.281.291.281.687 0 .417-.271.698-.271.281-.687.281Zm-.605 8.688q-2.708 0-5.26-1.198-2.552-1.198-4.531-3.177-1.98-1.98-3.188-4.532-1.208-2.552-1.208-5.281 0-.25.031-.594.031-.343.073-.614h5.583l.979 4.562-2.645 2.479q.687 1.209 1.781 2.313 1.094 1.104 2.427 1.937L13 10.958l4.542 1v5.584q-.25.062-.594.093-.344.032-.615.032Z"/></svg>

<svg xmlns="http://www.w3.org/2000/svg" height="20" width="20"><path d="M10.312 8.979Q9.896 8.979 9.604 8.698Q9.312 8.417 9.312 8Q9.312 7.604 9.604 7.313Q9.896 7.021 10.312 7.021Q10.708 7.021 10.99 7.313Q11.271 7.604 11.271 8Q11.271 8.417 10.99 8.698Q10.708 8.979 10.312 8.979ZM13.625 8.979Q13.208 8.979 12.927 8.698Q12.646 8.417 12.646 8Q12.646 7.604 12.927 7.313Q13.208 7.021 13.604 7.021Q14.021 7.021 14.312 7.313Q14.604 7.604 14.604 8Q14.604 8.417 14.312 8.698Q14.021 8.979 13.625 8.979ZM16.938 8.979Q16.542 8.979 16.24 8.698Q15.938 8.417 15.938 8Q15.938 7.604 16.24 7.313Q16.542 7.021 16.938 7.021Q17.333 7.021 17.615 7.313Q17.896 7.604 17.896 8Q17.896 8.417 17.625 8.698Q17.354 8.979 16.938 8.979ZM16.333 17.667Q13.625 17.667 11.073 16.469Q8.521 15.271 6.542 13.292Q4.562 11.312 3.354 8.76Q2.146 6.208 2.146 3.479Q2.146 3.229 2.177 2.885Q2.208 2.542 2.25 2.271H7.833L8.812 6.833L6.167 9.312Q6.854 10.521 7.948 11.625Q9.042 12.729 10.375 13.562L13 10.958L17.542 11.958V17.542Q17.292 17.604 16.948 17.635Q16.604 17.667 16.333 17.667Z"/></svg>
